64x64/apps/at.priv.toastfreeware.ConfClerk.svg

<svg height="64" width="64" xmlns="http://www.w3.org/2000/svg"><path d="m4 21.9v33.3c0 1.55 1.25 2.8 2.8 2.8h49.4c1.55 0 2.754-1.25 2.8-2.8v-33.3z" opacity=".2"/><path d="m4 20.9v33.3c0 1.55 1.25 2.8 2.8 2.8h49.4c1.55 0 2.8-1.25 2.8-2.8v-33.3z" fill="#f4f4f7"/><path d="m59 22v-11.2c0-1.551-1.248-2.8-2.8-2.8h-49.4a2.794 2.794 0 0 0 -2.8 2.8v11.2z" opacity=".1"/><path d="m59 21v-11.2c0-1.551-1.248-2.8-2.8-2.8h-49.4a2.794 2.794 0 0 0 -2.8 2.8v11.2z" fill="#31b7cf"/><path d="m33 24h8v8h-8zm11 0h8v8h-8zm-22 0h8v8h-8zm-11 0h8v8h-8z" opacity=".2"/><circle cx="14.5" cy="14.5" opacity=".2" r="2.5"/><circle cx="14.5" cy="13.5" fill="#f4f4f7" r="2.5"/><circle cx="48.5" cy="14.5" opacity=".2" r="2.5"/><circle cx="48.5" cy="13.5" fill="#f4f4f7" r="2.5"/><path d="m44 35h8v8h-8zm-22 0h8v8h-8zm-11 0h8v8h-8zm22 11h8v8h-8zm11 0h8v8h-8zm-22 0h8v8h-8zm-11 0h8v8h-8z" opacity=".2"/><path d="m6.8 7c-1.55 0-2.8 1.25-2.8 2.8v1c0-1.55 1.25-2.8 2.8-2.8h49.401a2.794 2.794 0 0 1 2.799 2.8v-1c0-1.55-1.248-2.8-2.799-2.8z" fill="#f4f4f7" opacity=".2"/><path d="m33 35h8v8h-8z" opacity=".2"/></svg>

<svg xmlns="http://www.w3.org/2000/svg" width="64" height="64"><path style="opacity:.2" d="M4 21.9v33.3C4 56.75 5.25 58 6.8 58h49.4c1.55 0 2.754-1.25 2.8-2.8V21.9z"/><path style="fill:#f4f4f7" d="M4 20.9v33.3C4 55.75 5.25 57 6.8 57h49.4c1.55 0 2.8-1.25 2.8-2.8V20.9z"/><path style="opacity:.1" d="M59 22V10.8C59 9.249 57.752 8 56.2 8H6.8A2.794 2.794 0 0 0 4 10.8V22z"/><path style="fill:#31b7cf" d="M59 21V9.8C59 8.249 57.752 7 56.2 7H6.8A2.794 2.794 0 0 0 4 9.8V21z"/><path style="opacity:.2" d="M33 24h8v8h-8zM44 24h8v8h-8zM22 24h8v8h-8zM11 24h8v8h-8z"/><circle style="opacity:.2" cx="14.5" cy="14.5" r="2.5"/><circle style="fill:#f4f4f7" cx="14.5" cy="13.5" r="2.5"/><circle style="opacity:.2" cx="48.5" cy="14.5" r="2.5"/><circle style="fill:#f4f4f7" cx="48.5" cy="13.5" r="2.5"/><path style="opacity:.2" d="M44 35h8v8h-8zM22 35h8v8h-8zM11 35h8v8h-8zM33 46h8v8h-8zM44 46h8v8h-8zM22 46h8v8h-8zM11 46h8v8h-8z"/><path style="opacity:.2;fill:#f4f4f7" d="M6.8 7C5.25 7 4 8.25 4 9.8v1C4 9.25 5.25 8 6.8 8h49.401A2.794 2.794 0 0 1 59 10.8v-1C59 8.25 57.752 7 56.201 7z"/><path style="opacity:.2" d="M33 35h8v8h-8z"/></svg>
